X:1
T:Billy in the Lowground
R:reel
Q:120
C:Trad.
S:Cyril Stinnett
B:OTFR:#54; E. F. Adams' Old-Time Fiddler's Favorite Barn Dance
B:Tunes (St. Louis, 1927):#42
A:Missouri
Z:B. Shull, trans.; R.P. LaVaque, ABCs
M:2/4
L:1/16
K:C
|:(G,B,)CD (EG)A(B|cB)cd (cA)Gc|(Ac)AG (ED)E(^F|G)ECE D(CA,C)|!
(G,B,)CD (EG)A(B|cB)cd (cA)Gc|(Ac)AG (ED)E(^F|G)ECE DCC2:|!
|:(eg2)(a g2)e(g|ag)ed (cA)Gc|ea2(b a2)a(g|ag)ed (cA)Gc|!
(eg2)(a g2)e(g|ag)ed (cA)Gc|(Ac)AG (ED)E(^F|G)ECE DCC2:|
